X:1
T:From 'Lakmé'
T:Léo Delibes (1836-1891)
T:Sous le dôme épais
T:Copyright © 2009 by the Choral Public Domain Library (http://www.cpdl.org) Edition may be freely distributed, duplicated, performed, or recorded.
T:Copyright © 2009 by the Choral Public Domain Library (http://www.cpdl.org) Edition may be freely distributed, duplicated, performed, or recorded.
T:Copyright © 2009 by the Choral Public Domain Library (http://www.cpdl.org) Edition may be freely distributed, duplicated, performed, or recorded.
T:Copyright © 2009 by the Choral Public Domain Library (http://www.cpdl.org) Edition may be freely distributed, duplicated, performed, or recorded.
T:Copyright © 2009 by the Choral Public Domain Library (http://www.cpdl.org) Edition may be freely distributed, duplicated, performed, or recorded.
T:Copyright © 2009 by the Choral Public Domain Library (http://www.cpdl.org) Edition may be freely distributed, duplicated, performed, or recorded.
T:Copyright © 2009 by the Choral Public Domain Library (http://www.cpdl.org) Edition may be freely distributed, duplicated, performed, or recorded.
T:Copyright © 2009 by the Choral Public Domain Library (http://www.cpdl.org) Edition may be freely distributed, duplicated, performed, or recorded.
T:Copyright © 2009 by the Choral Public Domain Library (http://www.cpdl.org) Edition may be freely distributed, duplicated, performed, or recorded.
T:Copyright © 2009 by the Choral Public Domain Library (http://www.cpdl.org) Edition may be freely distributed, duplicated, performed, or recorded.
T:Copyright © 2009 by the Choral Public Domain Library (http://www.cpdl.org) Edition may be freely distributed, duplicated, performed, or recorded.
T:Copyright © 2009 by the Choral Public Domain Library (http://www.cpdl.org) Edition may be freely distributed, duplicated, performed, or recorded.
T:Copyright © 2009 by the Choral Public Domain Library (http://www.cpdl.org) Edition may be freely distributed, duplicated, performed, or recorded.
Z:Copyright © 2009 by the Choral Public Domain Library (http://www.cpdl.org)
Z:Edition may be freely distributed, duplicated, performed, or recorded.
%%score 1 2 { ( 3 4 ) | ( 5 6 ) }
L:1/8
Q:1/8=144
M:6/8
K:B
V:1 treble nm="Lakmé" snm="Sop."
V:2 treble nm="Mallika" snm="Mez."
V:3 treble nm="P3"
V:4 treble 
V:5 bass 
V:6 bass 
V:1
 z!p! d2- d (c/d/.e) | z d2- d (c/d/e) | z (d/e/ d/e/ f/g/ f/e/ d/c/ | B/c/B/c/B/c/ A3) | %4
w: Dô- me é- * pais|le _ jas- * min|À _ la _ ro- * se _ s'as- *|sem- * * * * * ble,|
 z d2- d (c/d/e) | z d2- d (c/d/e) | z (d/e/ d/e/ f/g/ f/e/ d/c/ | B/c/B/c/B/c/ d3) | %8
w: Ri- ve en _ fleurs,|frais _ ma- * tin,|Nous * ap- * pel- * lent _ en- *|sem- * * * * * ble.|
 z!mf! c2- c (c/f/) (f/c/) |!p! z d2- d d/A/ A/d/ |!mf! z c2- c c/f/ f/c/ | z c/f/ f/c/ z (f2 | %12
w: Ah ! _ glis- * sons _|en _ sui- * vant _|Le _ cou- * rant _|fu- * yant _ Dans|
!f! g3-) g/e/ (B/G/ B/e/ | g b2 g2 e/) z/ | (e3- e/B/ =G/E/G/B/ | e =g2 e2 B) | d3 (dgd | %17
w: l'on- * de fré- * mis- *|san- * * te,|D'u- * ne main _ non- cha-|lan- * * te,|Ga- gnons _ le|
 f3) (fgd | f)(eG) z (eG) | z (eG eGe) | z!pp! d2- d (c/d/.e) | z d2- d (c/d/.e) | %22
w: bord Où _ l'oi-|seau chan- te, l'oi- seau,|l'oi- seau chan- * te.|Dô- * me é- * pais,|blanc _ jas- * min,|
 z!>(! (d/e/ d/e/ f/g/f/e/d/c/!>)! | B/c/B/c/B/c/) (B{/d}c)B | f6 | !fermata!f2 z z2 z || %26
w: Nous _ ap- * pel- * * * * *|* * * * * * lent _ en-|sem-|ble !|
[K:G][Q:1/8=160][Q:1/8=160][Q:1/8=160] z B2 z cd | dcd _e=fg | AA/ z/ A AGF | B3 z BB | B^AB ^ccc | %31
w: Mais je ne|sais quel- le crain- te su-|bi- te s'em- pa- re de|moi Quand mon|pè- re va seul à leur|
 ^cBc de z/ f/ | (g3 _B) z3/2 B/ | A3 A2 A | A2 z z2 z | z6 | z6 | z6 | z6 | z6 | z6 | z6 | %42
w: vil- le mau- di- te, Je|trem- ble, je|trem- ble d'ef-|froi !||||||||
 z2 ^c d2 d | ^cc/ z/ c (.d.e.d) | ^c2{/c} c c2 c | d2"^poco rall." d d2 d || %46
w: Oui, près des|cy- gnes aux ai- les de|nei- ge Al- lons cueil-|lir les lo- tus|
[K:B] d d2- d (c/d/.e) | z d2- d (c/d/.e) | z (d/e/ d/e/ f/g/ f/e/ d/c/ | B/c/B/c/B/c/ A3) | %50
w: bleus Dô- me é- * pais,|le _ jas- * min|À _ la _ ro- * se _ s'as- *|sem- * * * * * ble,|
 z d2- d c/d/e | z d2- d (c/d/.e) | z (d/e/ d/e/ f/g/ a/g/ f/e/ | d/e/d/c/B/c/ d3) | %54
w: Ri- * ve en _ fleurs,|frais _ ma- * tin|Nous _ ap- * pel- * lent _ en- *|sem- * * * * * ble.|
 z!mf! c2- c (c/f/) (f/c/) | z!p! d2- d (d/A/) (A/d/) | z!mf! c2- c (c/f/) (f/c/) | %57
w: Ah! _ glis- * sons *|en _ sui- * vant _|Le _ cou- * rant _|
 z (c/f/) (f/c/) z!<(! f2!<)! |!f! g3- (g/e/ B/G/ B/e/ | g b2 g2 e/) z/ |!p! e3- (e/B/ G/E/G/B/ | %61
w: fuy- * ant _ Dans|l'on- * de fré- * mis- *|san- * * te,|D'u- * ne main _ non- cha-|
 e g2 e2 B) | d3 (dg)d | f3 (fgd | f)(eG) z (eG) | z (e"^poco rall."G eGe) | %66
w: lan- * * te,|Ga- gnons _ le|bord, Où _ l'oi-|seau chan- te, l'oi- seau,|l'oi- seau chan- * te.|
!pp! z d2-"^a tempo" d (c/d/.e) | z d2- d (c/d/.e) | (z!>(! d/e/ d/e/ f/g/f/e/d/c/!>)! | %69
w: Dô- me é- * pais,|blanc _ jas- * min,|Nous _ ap- * pel- * * * * *|
 B/c/B/c/B/c/) (B"^rall."{/d}c)B | f6- | !fermata!f2 z z2 z | z6 | z6 | z6 | z6 | z6 | z6 | z6 | %79
w: * * * * * * lent _ en-|sem-|ble !||||||||
 z6 | z6 | z6 | z6 | z!p!"^a tempo" d2- d (c/d/.e) | z d2- d c/d/e | %85
w: ||||ah ! _ _ _ _|ah ! _ _ _ _|
 z!<(! (d/e/d/e/!<)!!>(! f/g/f/e/d/c/!>)! | B/c/B/c/B/c/ B{/d}c)(B | f6-) | f2 z z2 z |] %89
w: ah ! _ _ _ _ _ _ _ _ _|_ _ _ _ _ _ _ _ _|||
V:2
 z!p! (B/A/ B/A/ G) (A/B/.c) | z B/A/ B/A/ G A/B/c | z (B/c/ B/c/ d/e/ d/c/ B/A/ | %3
w: Sous _ le _ dôme é- * pais|où _ le _ blanc jas- * min|À _ la _ ro- * se _ s'as- *|
 G/A/G/A/G/A/ F3) | z (B/A/ B/A/ G) (A/B/c) | z (B/A/ B/A/ G) (A/B/c) | %6
w: sem- * * * * * ble,|Sur _ la _ rive en _ fleurs,|ri- * ant _ au ma- * tin,|
 z B/c/ B/c/ d/e/ d/c/ B/A/ | G/A/G/A/G/A/ B3 | z A/G/ F/G/ A A/F/ F/A/ | %9
w: Viens, _ des- * cen- * dons _ en- *|sem- * * * * * ble.|Dou- * ce- * ment glis- * sons, _|
!p! z A/G/ F/G/ A A/F/ F/A/ |!mf! z A/G/ F/G/ A A/F/ F/A/ | z A/F/ F/A/ z (f2 | %12
w: De _ son _ flot char- * mant _|Sui- * vons _ le cou- * rant _|fu- * yant _ Dans|
!f! e3-) e/B/ (G/E/ G/B/ | e g2 e2 G/) z/ | (=G3- G/G/ E/B,/E/G/ | B e2 B2 =G) | F B/A/G/A/ B3 | %17
w: l'on- * de fré- * mis- *|san- * * te,|D'u- * ne main _ non- cha-|lan- * * te,|Viens, ga- * gnons le bord|
 z =A/G/F/G/ A3 | z (GE) z (GE) | z (GE GEG) | z!pp! B/A/ B/A/ G (A/B/.c) | %21
w: Où la sour- ce dort|Et _ l'oi- seau|l'oi- seau chan- * te.|Sous _ le _ dô- me é- * pais,|
 z (B/A/ B/A/ G) (A/B/.c) | z!>(! (B/c/ B/c/ d/e/d/c/B/A/!>)! | G/A/G/A/G/A/) (G{/B}A)G | d6 | %25
w: Sous _ le _ blanc jas- * min,|Ah ! _ des- * cen- * * * * *|* * * * * * dons _ en-|sem-|
 !fermata!d2 z z2 z ||[K:G] z6 | z6 | z6 | z6 | z6 | z6 | z6 | z6 | z2 z AdB | BAB ^cde | %36
w: ble !|||||||||Pour que le|Dieu Ga- ne- ça le pro-|
 A2 A/ z/ AdB | BAB ^cde | f3- f z ^c | dd/ z/ d dAB | ^c2 c/ z/ _Bcf | d2 d (dAB) | ^c2 z z2 z | %43
w: tè- ge, Jus- qu'à l'é-|tang où s'é- bat- tent joy-|eux _ Les|cy- gnes aux ai- les de|nei- ge, Al- lons cueil-|lir les lo- * tus|bleus.|
 z6 | z6 | z6 ||[K:B] z (B/A/ B/A/ G) (A/B/c) | z (B/A/ B/A/ G) (A/B/.c) | %48
w: |||Sous _ le _ dôme é- * pais,|où _ le _ blanc jas- * min|
 (z B/c/ B/c/ d/e/ d/c/ B/A/ | G/A/G/A/G/A/ F3) | z B/A/ B/A/ G A/B/c | z (B/A/ B/A/ G) (A/B/.c) | %52
w: À _ la _ ro- * se _ s'as- *|sem- * * * * * ble,|Sur _ la _ rive en _ fleurs,|ri- * ant _ au ma- * tin,|
 z (B/c/ B/c/ d/e/ f/e/ d/c/ | B/c/B/A/G/A/ B3) | z!mf! (A/G/ F/G/ A) A/F/ F/A/ | %55
w: Viens, _ des- * cen- * dons _ en- *|sem- * * * * * ble.|Dou- * ce- * ment glis- * sons _|
 z!p! A/G/ F/G/ A A/F/ F/A/ | z!mf! (A/G/ F/G/ A) (A/F/) (F/A/) | z (A/F/) (F/A/) z!<(! f2!<)! | %58
w: de _ son _ flot char- * mant _|Sui- * vons _ le cou- * rant _|fuy- * ant _ Dans|
!f! e3- (e/B/ G/E/ G/B/ | e g2 e2 G/) z/ |!p! G3- (G/G/ E/B,/E/G/ | B e2 B2 =G) | F (B/A/G/A/) B3 | %63
w: l'on- * de fré- * mis- *|san- * * te,|D'u- * ne main _ non- cha-|lan- * * te,|Viens, ga- * gnons le bord,|
 z A/G/F/G/ A3 | z (GE) z GE | z (G"^poco rall."E GEG) |!pp! z (B/"^a tempo"A/ B/A/ G) (A/B/.c) | %67
w: Où la sour- ce dort|Et _ l'oi- seau,|l'oi- seau chan- * te.|Sous _ le _ dôme é- * pais,|
 z (B/A/ B/A/ G) (A/B/.c) | z!>(! (B/c/B/c/ d/e/d/c/B/A/!>)! | G/A/G/A/G/A/) (G"^rall."{/B}A)G | %70
w: Sous _ le _ blanc jas- * min,|Ah ! _ des- * cen- * * * * *|* * * * * * dons _ en-|
 d6- | !fermata!d2 z z2 z | z6 | z6 | z6 | z6 | z6 | z6 | z6 | z6 | z6 | z6 | z6 | %83
w: sem-|ble !||||||||||||
 z!p! (B/A/B/A/ G) (A/B/.c) | z (B/A/B/A/ G) (A/B/c) | z!<(! (B/c/B/c/!<)!!>(! d/e/d/c/B/A/!>)! | %86
w: ah ! _ _ _ _ _ _ _|ah ! _ _ _ _ _ _ _|ah ! _ _ _ _ _ _ _ _ _|
 G/A/G/A/G/A/ G{/A}A)G | d6- | d2 z z2 z |] %89
w: _ _ _ _ _ _ _ _ _|||
V:3
!pp! x d2- d x2 | x d2- d x2 | x6 | x6 | z d2- d x2 | z d2- d z2 | x6 | x6 |!mf! x c2- c x2 | %9
!p! x d2- d x2 |!mf! x c2- c x2 | z6 | x6 |!<(! x6!<)! |!pp! x6 |!<(! x6!<)! | d3- (dgd | %17
 f3-) (fgd | f) x5 | x6 | x!pp! d2- d x2 | z d2- d z2 | x6 | x6 | x6 | x6 || %26
[K:G] z!p! [B,D][B,D] x DD | z CC x [_EG][EG] | z [A,C][A,C] x [CD][CD] | %29
 z [B,D][B,D] x [G,B,][G,B,] | z [^A,^C][A,C] x [EG][EG] | z [DF][DF] x [FB][FB] | %32
 z [_B,D][B,D] x [G,B,][G,B,] | z6 | x6 | x6 | x6 | x6 | x6 | x6 | x6 | x6 | x6 | x6 | x6 | x6 || %46
[K:B] z d2- d x2 | z d2- d x2 | x6 | x6 | z d2- d x2 | z d2- d x2 | x6 | x6 |!mf! z c2- c x2 | %55
!pp! z d2- d x2 | z!mf! c2- c x2 | x6 | x6 |!>(! x6!>)! |!pp! x6 |!<(! x6!<)! | d3 B3 | f3- (fgd | %64
 f) x5 | x6 |!pp! x"^a tempo" d2- d x2 | z d2- d z2 | x6 | x6 | x6 | z2 z"^a tempo" (C3 | C3 B,3 | %73
 =C2) z B,3- | B,3 A,3 |!pp! z d2- d x2 | z ([Bd]/A/B/A/ d) x2 | x6 | x6 | x3 (C3 | ^B,3) (C3 | %81
 ^B,3) =C3 | B,3"^dim." A,2"^rall." x | x6 | x6 | x6 | x6 | x6!pp! | x6 |] %89
V:4
 z B/A/B/A/ G ([Ac]/[Bd]/[ce]) | z B/A/B/A/ G ([Ac]/[Bd]/.[ce]) | %2
 z!<(! ([Bd]/[ce]/[Bd]/[ce]/!<)!!>(! [df]/[eg]/[df]/[ce]/[Bd]/[Ac]/!>)! | %3
 [GB]/[Ac]/[GB]/[Ac]/[GB]/[Ac]/ [FA]3) | z (B/A/B/A/ G) ([Ac]/[Bd]/.[ce]) | %5
 z (B/A/B/A/ G) ([Ac]/[Bd]/.[ce]) | %6
 z!<(! ([Bd]/[ce]/[Bd]/[ce]/!<)!!>(! [df]/[eg]/[df]/[ce]/[Bd]/[Ac]/!>)! | %7
 [GB]/[Ac]/[GB]/[Ac]/[GB]/[Ac]/ [Bd]3) | z (A/G/F/G/ A) ([Ac]/[Ff]/) ([Ff]/[Ac]/) | %9
 z (A/G/F/G/ A) ([Ad]/[FA]/) ([FA]/d/) | z A/G/F/G/ [Ac] ([Ac]/[Ff]/) ([Ff]/[Ac]/) | %11
 z ([Ac]/[Ff]/) ([Ff]/[Ac]/) z [Ff]2 | [eg]3- ([eg]/[Be]/[GB]/[EG]/[GB]/[Be]/) | %13
 ([eg] [gb]2!>(! [eg]2 [Ge]/)!>)! z/ | [=Ge]3- [Ge]/[GB]/[EG]/[B,E]/[EG]/[GB]/ | %15
 [Be] [e=g]2!>(! [Be]2 [=GB]!>)! | F B/A/G/A/ B2 x | z (=A/G/F/G/ A3) | x [Ge][EG] z [Ge][EG] | %19
 z [Ge][EG] [Ge][EG][Ge] | z (B/A/B/A/ G) ([Ac]/[Bd]/.[ce]) | z (B/A/B/A/ G) ([Ac]/[Bd]/.[ce]) | %22
 z!>(! ([Bd]/[ce]/[Bd]/[ce]/ [df]/[eg]/[df]/[ce]/[Bd]/[Ac]/)!>)! | %23
 [GB]/[Ac]/[GB]/[Ac]/[GB]/[Ac]/ [GB][Ac][GB] | [df]6- | [df]2 z z2 z || %26
[K:G] z (A/G/) (A/G/) z ([Gc]/B/) ([Gc]/B/) | z ([GB]/A/) ([GB]/A/) z (d/c/) (d/c/) | %28
 z (G/F/) (G/F/) z (B/A/) (B/A/) | z (A/G/) (A/G/) z (E/D/) (E/D/) | %30
 z (G/F/) (G/F/) z (d/^c/) (d/c/) | z (^c/B/) (c/B/) z (e/d/) (e/d/) | %32
 z (A/G/) (A/G/) z (=F/E/) (F/E/) | z (E/D/) (E/D/) z (D/^C/) (D/C/) | z (F/E/D/E/ (F3) | %35
 [^CG]) (.[^ca].[Bcg] .[Gce].[GBd].[EGc]) | z (F/E/D/E/) (F3 | %37
 [^CG]) (.[^ca].[Bcg] .[Gce].[GBd].[GB]) | (^A/^c/f/^a/f/c/) (A/c/f/a/f/c/) | %39
 (A/d/f/a/f/d/) (A/d/f/a/f/d/) | (^A/^c/f/^a/f/c/) (A/c/f/a/f/c/) | (A/d/f/a/f/d/) (A/d/f/a/f/d/) | %42
 (^A/^c/A/F/^C/F/) (!>!D/F/=A/F/D/F/) | (^C/F/^A/^c/A/F/) (!>!D/F/A/F/D/F/) | %44
 (^C/F/^A/^c/A/F/) (C/F/A/c/A/F/) | (D/F/^A/d/A/F/) (D/F/A/d/A/F/) || %46
[K:B] D (B/A/B/A/ G) ([Ac]/[Bd]/.[ce]) | z B/A/B/A/ G ([Ac]/[Bd]/.[ce]) | %48
 z!<(! ([Bd]/[ce]/[Bd]/[ce]/!<)!!>(! [df]/[eg]/[df]/[ce]/[Bd]/[Ac]/!>)! | %49
 [GB]/[Ac]/[GB]/[Ac]/[GB]/[Ac]/ [FA]3) | z (B/A/B/A/ G) ([Ac]/[Bd]/.[ce]) | %51
 z (B/A/B/A/ G) ([Ac]/[Bd]/.[ce]) | %52
 z!<(! ([Bd]/[ce]/[Bd]/[ce]/!<)!!>(! [df]/[eg]/[fa]/[eg]/[df]/[ce]/!>)! | %53
 [Bd]/[ce]/[Bd]/[Ac]/[GB]/[Ac]/ [Bd]3) | z (A/G/F/G/ A) ([Ac]/[Ff]/) ([Ff]/[Ac]/) | %55
 z A/G/F/G/ A ([Ad]/[FA]/) ([FA]/[Ad]/) | z (A/G/F/G/ A) ([Ac]/[Ff]/) ([Ff]/[Ac]/) | %57
 z ([Ac]/[Ff]/) ([Ff]/[Ac]/) z!<(! ([Ff]2!<)! | [eg]3-) ([eg]/[Be]/[GB]/[EG]/[GB]/[Be]/ | %59
 [eg] [gb]2 [eg]2 [Ge]/) z/ | [Ge]3- ([Ge]/[GB]/[EG]/[B,E]/[EG]/[GB]/ | %61
 [Be] [eg]2!>(! [Be]2 [=GB])!>)! | FB/A/G/A/ dgd | z (A/G/F/G/ A3) | f ([Ge][EG]) z ([Ge][EG]) | %65
 z ([Ge]"^poco rall."[EG] [Ge][EG][Ge]) | z (B/A/B/A/ G) ([Ac]/[Bd]/.[ce]) | %67
 z (B/A/B/A/ G) ([Ac]/[Bd]/.[ce]) | %68
 z!>(! ([Bd]/[ce]/[Bd]/[ce]/ [df]/[eg]/[df]/[ce]/[Bd]/[Ac]/!>)! | %69
 [GB]/[Ac]/[GB]/[Ac]/[GB]/[Ac]/) ([GB]"^rall."{/d}[Ac][GB]) | [Bd]6- | [Bd]2 !fermata!z _E3- | %72
 E3 (D=F=G) | _E3 D3- | (D{/F}ED) F2 F | z (B/A/B/A/ G) ([Ac]/[Bd]/.[ce]) | %76
 z ([Bd]/A/B/A/ G) ([Ac]/[Bd]/.[ce]) | z ([Bd]/[ce]/[Bd]/[ce]/ [df]/[eg]/[df]/[ce]/[Bd]/[Ac]/ | %78
 [GB]/[Ac]/[GB]/[Ac]/[GB]/[Ac]/) [Bd]3- | [Bd]2 z [CD]3 | [^B,D]3 (DEF | D3) E3 | E3- (EFG/) z/ | %83
 x4 ([Ac]/[Bd]/.[ce]) | z2 z z ([Ac]/[Bd]/.[ce]) | z6 | z6 | z6 | .b2 z z2 z |] %89
V:5
{/B,,,} B,, !>!F,F E !>!G,2 |{/B,,,} B,, !>!F,F E !>!G,2 |{/B,,,} B,, F,2 x3 | %3
{/B,,,} B,, (!>!G,D) (D,/A,/ .D,).D, | B,, (!>!F,F) E !>!G,2 |{/B,,,} B,, (!>!F,F) E !>!G,2 | %6
{/B,,,} B,, F,2 x3 | B,, (!>!G,D) (B,,/F,/ .B,,).B,, |!<(! (F,,C,A,-)!<)! A,A,C, | %9
 (D,,D,A,-) A,A,D, | (F,,C,A,-) A,A,C, | F,,A,C, F,,2 z |{/E,,,} E,,/ (E,,/B,,/E,/G,/B,/ E) z z | %13
 z .E,,.B,, .E,.G,.B, | z/ (E,,/B,,/E,/=G,/B,/ E) z z | z .E,,.B,, .E,.G,.B, | .F,, !>!F,2- F,3 | %17
 F,, !>![F,^B,]2- [F,B,]3 | C G,A,- A,G,A, | F,,G,A,- A,G,A, |{/B,,,} B,, (!>!F,F) E !>!G,2 | %21
{/B,,,} B,, F,2 E (G,=G, | [B,,F,]6-) | [B,,F,]3 [B,,G,E] z2 | z{/B,,,} .B,,.F, .B,.D.F | %25
 .b z z z2 z ||[K:G][K:bass] (G,,3 B,,3 | _E,3 A,,3 | D,3) (D,,3 | G,,3 B,,3 | E,3) ^A,3 | %31
 D,3 B,3 | x6 | x [F,A,][F,A,] [E,G,][E,G,] x | (D,,A,,F, A,F,A,, | D,,6) | (D,,A,,F, A,F,A,, | %37
 [D,,A,,]3) (A,B,^C) | [F,,^C,] (^A,/^G,/F,/G,/ A,^CF) | D2 D (DA,B,) | (^C ^A,/^G,/F,/G,/ A,CF | %41
 D2) D (DA,B,) | [F,^C]2 z [F,A,]3 | [F,^A,]3 [F,=A,]3 | [F,^A,]6- | [F,A,]6 || %46
[K:B]{/B,,,} B,, F,F E !>!G,2 |{/B,,,} B,, !>!F,F E !>!G,2 |{/B,,,} B,, F,2 z FF, | %49
 B,, (G,D) (D,/A,/ .D,).D, |{/B,,,} B,, (F,F) E !>!G,2 |{/B,,,} B,, (F,F) E !>!G,2 | %52
{/B,,,} B,, F,2 x3 | B,, (!>!G,D) (B,,/F,/ .B,,).B,, |!<(! (F,,C,A,-)!<)! A,A,C, | %55
 (D,,D,A,-) A,A,D, | (F,,C,A,-) A,A,C, | F,,A,C, F,,2 z |{/E,,,} E,,/ (E,,/B,,/E,/G,/B,/ E) z z | %59
 z .E,,.B,, .E,.G,.B, | z/ (E,,/B,,/E,/G,/B,/ E) z2 | z .E,,.B,, .E,.=G,.B, | F,, !>!F,2- F,3 | %63
 .F,, !>![F,^B,]2- [F,B,]3 |{/F,,} C (G,A,) .F,, (G,A,) | .F,, (G,A,- A,G,A,) | %66
{/B,,,} B,, !>!F,F E !>!G,2 |{/B,,,} B,, F,2 x (G,=G, | [B,,F,]6-) | [B,,F,]3 [B,,G,E] z2 | %70
 z{/B,,,} .B,,.F, .B,.D.F | b !fermata!z z[K:bass] ([_B,,=G,]3 | G,,3 =G,,3 | G,,3) (=G,,3 | %74
 F,,3) F,,3 |{/B,,,} B,, (!>!F,F) E !>!G,2 |{/B,,,} B,, !>!F,F E !>!G,2 |{/B,,,} B,, !>!F,2 x3 | %78
 B,, G,2 (B,,/F,/).B,,.B,, | B,,2 z =A,,3 | G,,3 (=A,,3 | G,,3) =G,,3- | (G,,3 F,,2) z | %83
({/B,,,} .B,,.F,.F) [EG] z2 |({/B,,,} .B,,.F,.F) [EG] z z | z6 | z6 | z2 z{/B,,,} .B,,2 z | z6 |] %89
V:6
 x F,2 x (G,B,,) | z F,2 x (G,B,,) | z (F,F-) FFF, | x G,2 x3 | x F,2 x (G,B,,) | z F,2 x (G,B,,) | %6
 z F,F FFF, | z G,2 D z2 | z6 | x6 | x6 | x6 | x6 | x6 | x6 | x6 | x6 | x6 | x6 | x6 | %20
 x F,2 x (G,B,,) | x (F,F) x3 | x6 | x6 | x6 | x6 ||[K:G][K:bass] x6 | x6 | x6 | x6 | x6 | x6 | %32
 (E,,3 G,,3 | A,,3){/A,,,} A,,3 | x6 | A,,6 | x6 | x6 | x6 | x6 | x6 | x6 | x6 | x6 | x6 | x6 || %46
[K:B] x F,2 x G,B,, | x F,2 x G,B,, | x (F,F-) FFF, | x G,2 x3 | z F,2 x (G,B,,) | %51
 z F,2 x (G,B,,) | z (F,F-) FFF, | z G,2 D x2 | x6 | x6 | x6 | x6 | x6 | x6 | x6 | x6 | x6 | x6 | %64
 x6 | x6 | z F,2 x (G,B,,) | x (F,F) E x2 | x6 | x6 | x6 | x3[K:bass] x3 | _E,6- | E,3 D,3- | %74
 D,3 E,3 | x F,2 x (G,B,,) | x4 (G,B,,) | x F,F- F(FF,) | x6 | x3 F,3- | F,3 F,3- | F,3 (E,3 | %82
 (=D,3) C,2) z | x6 | x6 | x6 | x6 | x6 | z6 |] %89

